X:645
T: Merry Bachelor
R: reel
M: 4/4
L: 1/8
S: "Raise the Rafters" (PJ King, K.Crawford, M.O Malley)
Z: B.Black
K: Bm
F|B2 Bc dBBA|B2 Bc dfec|B2 Bc d3B|ABde f2 ed|
B2 Bc dBBA|B2 Bc dfec|BFFF dFAF|ABde f3||
e|dfaf bfaf|dfaf g2 fe|afef dFBF|ABde f3 :|
